X:1
T:[ID 2v-7 (=2-137)]
T:[ID 2v-7 (=2-137)]
T:Bezeichnung standardisiert: Sonata Andante Sonata Andante
T:Urheber unbekannt Datum in der hier transkribierten schriftlichen Quelle: 1767
C:Urheber unbekannt
C:Datum in der hier transkribierten schriftlichen Quelle: 1767
L:1/8
M:2/4
K:G
V:1 treble 
V:1
 gbd'b | a3/2b/4c'/4 bd | ec' b/a/g/f/ | gdBg | f3/2g/4a/4 gB | c>e d/c/B/A/ | B>d d/c/B/A/ | %7
 Bd' c'/b/a/g/ | fg a2 | g/ba/ g/f/e/d/ | e/gf/ e/d/^c/B/ | c/ed/ c/B/A/G/ | F/A/d/f/ a/b=c'/ | %13
 b2 ^c'2 | d'/c'/b/a/ g/f/e/d/ | b/a/g/f/ e/d/^c/B/ | A2 Te2 | fg a2 | af b/a/g/f/ | ef g2 | %20
 ge a/g/f/e/ | de f2 | fd g/f/e/d/ | ^c2 de | ed/^c/ f/e/d/c/ | d2 ed/^c/ | dbag | fd ed/^c/ | %28
 dBAg | g2 f z :: a2 fa | ge fd/^c/ | ec'ba | ge fe/^d/ | e2 z2 | g2 eg | fd ed/^c/ | dbag | %38
 fd ed/c/ | dd/e/ f/g/a/b/ | ^c'3 c' | c' b2 a | ba/g/ f/e/d/c/ | B/g/f/e/ d/c/B/A/ | Bc d2 | %45
 dB e/d/c/B/ | AB c2 | cA d/c/B/A/ | Bc d2 | dB e/d/c/B/ | AB c2 | cA d/c/B/A/ | Bg ag/f/ | gedc | %54
 Bg ag/f/ | gedc' | c'2 c' :| %57

